X:1
T:Cantate Domino - Turini
T:#
%%score { 1 | 2 } 3 4
L:1/8
Q:1/4=150
M:none
K:F
V:1 treble nm="Soprano I" snm="S"
V:2 treble 
V:3 treble nm="Alto" snm="A"
V:4 treble-8 nm="Tenor" snm="T"
V:1
"^Cantate Domino""^Gregorio Turini\n(c.1560-c.1600)""^Psalm 98: 1,5" A4 A2 A2 A3 =B c2 c2 | %1
w: Can- ta- te Do- mi- no can-|
 d2 c2 c4 c2 A2 c2 B2 | A3 A A2 c2 B2 B2 A4 | A8 F4 F2 F2 |[M:4/2] E3 F G2 A2 B2 A2 G4 | %5
w: ti- cum no- vum, can- ta- te|Do- mi- no can- ti- cum no-|vum, can- ta- te|Do- mi- no can- ti- cum no-|
 A2 F2 G2 G2 E3 F E2 A2 | G2 G2 E4 D8 | A12 G4 | A6 A2 B4 d4 | c4 c8 c4 | z4 d4 ^c4 d4- | %11
w: vum, can- ta- te Do- mi- no can-|ti- cum no- vum:|qui- a|mi- ra- bi- li-|a fe- cit,|qui- a mi\-|
 d2 =c2 B4 A4 A4 | A8 B4 d2 d2 | c2 c2 A2 G2 A2 A2 c2 c2 | c4 c4 B6 c2 | d8 d8 | %16
w: * ra- bi- li- a|fe- cit. Ju- bi-|la- te De- o, ju- bi- la- te|De- o om- nis|ter- ra:|
 c4 (c2 BA G4) (DEFG) | A2 A2 (B3 A/G/ FGAB c4) | c2 ^c2 d2 (d4 c=B) c4 | d2 d2 =c2 B2 (B6 AG | %20
w: can- ta- * * * te * * *|* can- ta\- * * * * * * *|te, et ex- ul\- * * ta-|te, et ex- ul- ta\- * *|
 c8) d4 d4 | _e4 c4 d8 | d4 d4 c8- | c4 c4 c4[Q:1/4=146] d4 | %24
w: * te, et|ex- ul- ta-|te, et psal\-|* li- te, et|
[Q:1/4=143] d4[Q:1/4=140] ^c4[Q:1/4=136] d4[Q:1/4=133] d4 | %25
w: psal- li- te, et|
[Q:1/4=130] (d3[Q:1/4=129] c[Q:1/4=128] B2)[Q:1/4=126] B2[Q:1/4=122] A8- |[Q:1/4=120] A16 |] %27
w: psal\- * * li- te.||
V:2
 F4 F2 F2 E3 F G2 A2 | B2 A2 G4 A2 F2 G2 G2 | E3 F E2 A2 G2 G2 E4 | ^F8 A4 A2 A2 | %4
w: Can- ta- te Do- mi- no can-|ti- cum no- vum, can- ta- te|Do- mi- no can- ti- cum no-|vum, can- ta- te|
[M:4/2] A3 =B c2 c2 d2 c2 c4 | c2 A2 c2 B2 A3 A A2 c2 | B2 B2 A4 A8 | z8 d8 | ^c4 d6 =c2 B2 B2 | %9
w: Do- mi- no can- ti- cum no-|vum, can- ta- te Do- mi- no can-|ti- cum no- vum:|qui-|a mi- ra- bi- li-|
 A8 z8 | c4 B2 A4 A2 A4 | B4 G4 E8 | D4 d6 d2 B2 B2 | G2 G2 c6 c2 A2 A2 | G4 G4 G4 G4 | A8 B4 A4 | %16
w: a,|qui- a mi- ra- bi-|li- a fe-|cit. Ju- bi- la- te|De- o, ju- bi- la- te|De- o om- nis|ter- ra: can-|
 (A2 GF E4) c2 B2 (B2 AG) | ^F4 G2 d2 (d2 cB A4) | G2 A2 A2 B2 A8 | A2 A2 A2 F2 (G3 A B4- | %20
w: ta\- * * * te, can- ta\- * *|* te, can- ta\- * * *|te, et ex- ul- ta-|te, et ex- ul- ta\- * *|
 B2 AG A4) B4 A4 | c4 G4 A8 | B4 G4 A8 | G8 A4 B4 | B4 A4 A4 A4 | (B3 A G8 ^F2) E2 | ^F16 |] %27
w: * * * * te, et|ex- ul- ta-|te, et psal-|li- te, et|psal- li- te, et|psal\- * * * li-|te.|
V:3
 D4 D2 D2 ^C3 D E2 F2 | F2 F2 E4 F2 D2 E2 D2 | ^C3 D C2 F2 D2 D2 C4 | D8 D4 D2 D2 | %4
w: Can- ta- te Do- mi- no can-|ti- cum no- vum, can- ta- te|Do- mi- no can- ti- cum no-|vum, can- ta- te|
[M:4/2] ^C3 D E2 F2 F2 F2 E4 | F2 D2 E2 D2 ^C3 D C2 F2 | D2 D2 ^C4 D4 F4 | E4 F6 E2 D4 | %8
w: Do- mi- no can- ti- cum no-|vum, can- ta- te Do- mi- no can-|ti- cum no- vum: qui-|a mi- ra- bi-|
 E4 F4 G4 F4- | F4 A4 G4 A4- | A2 G2 F4 E4 ^F4 | G4 (D6 ^C=B, C4) | D2 F2 F2 F2 G4 G4 | %13
w: li- a fe- cit,|* qui- a mi\-|* ra- bi- li- a|fe- cit. * * *|Ju- bi- la- te De- o,|
 E4 E4 F2 E2 F4- | F4 E4 D2 D2 (G4- | G2 ^FE F4) G2 =F2 (F2 ED) | E2 A2 (A2 GF E2) D4 D2 | %17
w: ju- bi- la- te De\-|* o om- nis ter\-|* * * * ra: can- ta\- * *|te, can- ta\- * * * te, can-|
 D4 D4 z2 F2 F4 | E2 E2 ^F2 G2 E8 | D2 F2 E2 D2 (D6 E2 | F8) F4 ^F4 | G2 A4 (G4 ^FE F4) | %22
w: ta- te, can- ta-|te, et ex- ul- ta-|te, et ex- ul- ta\- *|* te, et|ex- ul- ta\- * * *|
 G2 G2 (D3 E =F2 E2 F4- | F2 ED E2) E2 F4 F4 | G4 E4 ^F4 F4 | G4 D4 D8- | D16 |] %27
w: te, et psal\- * * * *|* * * * li- te, et|psal- li- te, et|psal- li- te.||
V:4
 D4 D2 d2 A3 d c2 F2 | B2 F2 c4 F2 d2 c2 G2 | A3 D A2 F2 G2 G2 A4 | D8 D4 D2 d2 | %4
w: Can- ta- te Do- mi- no can-|ti- cum no- vum, can- ta- te|Do- mi- no can- ti- cum no-|vum, can- ta- te|
[M:4/2][K:treble-8] A3 d c2 F2 B2 F2 c4 | F2 d2 c2 G2 A3 D A2 F2 | G2 G2 A4 D4 d4 | ^c4 d6 =c2 B4 | %8
w: Do- mi- no can- ti- cum no-|vum, can- ta- te Do- mi- no can-|ti- cum no- vum: qui-|a mi- ra- bi-|
 A4 d4 B8 | F4 f4 e4 f4- | f2 e2 d4 A4 d4 | G8 A8 | d6 d2 B2 B2 G2 G2 | c6 c2 A2 A2 F4 | %14
w: li- a fe-|cit, qui- a mi\-|* ra- bil- li- a|fe- cit.|Ju- bi- la- te De- o,|ju- bi- la- te De-|
 c8 G4 _e4 | d8 G2 d2 (d2 cB | A4) c6 G2 (G2 FE) | D4 G2 B2 (B2 AG F4) | c2 A2 d2 G2 A8 | %19
w: o om- nis|ter- ra: can- ta\- * *|* te, can- ta\- * *|* te, can- ta\- * * *|te, et ex- ul- ta-|
 D2 d2 A2 B2 (G8 | F8) B4 d4 | c4 _e4 d8 | G4 B4 (A6 B2 | c4) c4 F4 B4 | G4 A4 D4 D4 | G4 G4 D8- | %26
w: te, et ex- ul- ta\-|* te, et|ex- ul- ta-|te, et psal\- *|* li- te, et|psal- li- te, et|psal- li- te.|
 D16 |] %27
w: |

